packages/bezier-icons/icons/group-filled.svg

<svg width="24" height="24" viewBox="0 0 24 24" fill="none" xmlns="http://www.w3.org/2000/svg">
<path fill-rule="evenodd" clip-rule="evenodd" d="M8.98429 11.1998C10.9723 11.1998 12.5843 9.58782 12.5843 7.59982C12.5843 5.61182 10.9723 3.99982 8.98429 3.99982C6.99629 3.99982 5.38429 5.61182 5.38429 7.59982C5.38429 9.58782 6.99629 11.1998 8.98429 11.1998ZM19.4093 9.92521C19.4093 11.5402 18.0993 12.8502 16.4843 12.8502C14.8683 12.8502 13.5593 11.5402 13.5593 9.92521C13.5593 8.30921 14.8683 7.00021 16.4843 7.00021C18.0993 7.00021 19.4093 8.30921 19.4093 9.92521ZM15.3143 13.6111C15.6943 13.5421 16.0843 13.5001 16.4843 13.5001C19.8983 13.5001 22.6973 16.1311 22.9633 19.4771C22.9853 19.7611 22.7463 20.0001 22.4613 20.0001H18.4643C18.1953 20.0001 17.9853 19.7871 17.9713 19.5191C17.8493 17.2141 16.8543 15.1371 15.3143 13.6111ZM1.00129 19.4761C1.27129 15.3021 4.74229 12.0001 8.98429 12.0001C13.2263 12.0001 16.6973 15.3021 16.9673 19.4761C16.9853 19.7601 16.7463 20.0001 16.4613 20.0001H1.50729C1.22229 20.0001 0.98329 19.7601 1.00129 19.4761Z" fill="#313234"/>
</svg>

<svg xmlns="http://www.w3.org/2000/svg" width="24" height="24" fill="none" viewBox="0 0 24 24"><path fill="#313234" fill-rule="evenodd" d="M8.984 11.2a3.6 3.6 0 1 0 0-7.2 3.6 3.6 0 0 0 0 7.2M19.41 9.925a2.926 2.926 0 1 1-5.85 0 2.926 2.926 0 0 1 5.85 0m-4.095 3.686c.38-.069.77-.11 1.17-.11a6.5 6.5 0 0 1 6.48 5.976.497.497 0 0 1-.503.523h-3.997a.497.497 0 0 1-.493-.48 8.97 8.97 0 0 0-2.657-5.909M1.001 19.476a8 8 0 0 1 15.966 0 .504.504 0 0 1-.506.524H1.507a.504.504 0 0 1-.506-.524" clip-rule="evenodd"/></svg>
